svg/emoji_u1f988.svg

<?xml version="1.0" encoding="UTF-8" standalone="no"?>
<!DOCTYPE svg PUBLIC "-//W3C//DTD SVG 1.1//EN" "http://www.w3.org/Graphics/SVG/1.1/DTD/svg11.dtd">
<svg width="100%" height="100%" viewBox="0 0 128 128" version="1.1" xmlns="http://www.w3.org/2000/svg" xmlns:xlink="http://www.w3.org/1999/xlink" xml:space="preserve" xmlns:serif="http://www.serif.com/" style="fill-rule:evenodd;clip-rule:evenodd;stroke-linejoin:round;stroke-miterlimit:2;">
    <path d="M127.72,67.12C128.19,66.26 127.26,65.31 126.38,65.76C119.24,69.4 114.97,70.95 110.63,74.29C110.58,74.18 101.88,57.26 87.52,46.63C92.14,44.54 97.11,43.27 99.87,42.66C100.098,42.614 100.263,42.411 100.263,42.179C100.263,41.95 100.103,41.75 99.88,41.7C93.842,40.31 87.633,39.808 81.45,40.21L80.56,38.98C79.41,34.29 77.95,23.53 77.56,19.38C77.551,19.212 77.451,19.062 77.3,18.99C77.23,18.95 77.151,18.93 77.07,18.93C76.98,18.93 76.9,18.95 76.82,18.99C71.79,21.86 65.73,31.64 65.45,32.1C64.67,31.9 64.08,31.86 64.08,31.86C56.34,30.38 48.95,29.75 42.15,29.76C2.87,29.82 1,32.48 0.92,32.52C0.66,32.67 0.44,32.89 0.3,33.17C0.3,33.18 0.29,33.19 0.29,33.19C0.25,33.28 0.22,33.37 0.19,33.47L0.19,33.49C0.17,33.59 0.16,33.69 0.15,33.79C0.15,33.97 0.17,34.15 0.23,34.33C3.75,44.35 14.16,50.48 14.16,50.48C14.81,55.38 30.97,62.56 44.01,65.96C43.97,66.02 43.93,66.09 43.88,66.17C43.86,66.21 43.83,66.25 43.8,66.3C43.77,66.35 43.74,66.41 43.71,66.46C43.69,66.5 43.66,66.54 43.64,66.58C43.6,66.64 43.57,66.71 43.53,66.77C43.53,66.77 43.53,66.78 43.52,66.78C43.43,66.94 43.34,67.11 43.25,67.29C43.23,67.33 43.21,67.38 43.18,67.42C43.14,67.51 43.1,67.59 43.05,67.68L42.99,67.8C42.9,67.98 42.82,68.17 42.73,68.37C42.71,68.41 42.7,68.44 42.68,68.48C42.63,68.59 42.59,68.7 42.54,68.81L42.48,68.96C42.33,69.33 42.18,69.72 42.04,70.14C42.02,70.2 42,70.25 41.98,70.31C41.94,70.44 41.89,70.58 41.85,70.71C41.83,70.76 41.82,70.81 41.8,70.86C41.72,71.13 41.64,71.4 41.57,71.68C41.56,71.73 41.54,71.78 41.53,71.84C41.49,71.99 41.46,72.13 41.42,72.28C41.4,72.35 41.39,72.43 41.37,72.5C41.26,72.98 41.16,73.49 41.08,74.01C41.07,74.1 41.05,74.19 41.04,74.29L40.98,74.76L40.95,75.06C40.92,75.33 40.89,75.61 40.87,75.89L40.84,76.24C40.83,76.4 40.82,76.56 40.82,76.71C40.81,76.84 40.81,76.96 40.81,77.09C40.81,77.25 40.8,77.4 40.8,77.56C40.8,77.81 40.8,78.06 40.81,78.32C40.9,81.46 41.63,85.05 43.51,88.93C43.65,89.21 43.93,89.39 44.25,89.39L44.26,89.39C44.58,89.39 44.87,89.2 45,88.91C46.09,86.5 48.46,81.76 51.84,77.59C52.01,77.38 52.19,77.17 52.36,76.96L52.37,76.95C52.54,76.75 52.72,76.54 52.9,76.34L52.93,76.31C53.1,76.11 53.28,75.92 53.46,75.73L53.49,75.7C54.23,74.92 55.01,74.17 55.82,73.5C55.83,73.49 55.84,73.48 55.86,73.47C56,73.35 56.14,73.24 56.29,73.13C56.37,73.06 56.46,73 56.54,72.93C56.67,72.83 56.79,72.74 56.92,72.65C57.02,72.57 57.13,72.5 57.23,72.42L57.59,72.18C57.71,72.1 57.82,72.02 57.94,71.95C58.05,71.88 58.17,71.81 58.29,71.74C58.42,71.66 58.55,71.59 58.67,71.52C58.78,71.46 58.89,71.39 59.01,71.33C59.15,71.26 59.28,71.19 59.42,71.12C59.53,71.07 59.64,71.01 59.75,70.96C59.9,70.89 60.05,70.83 60.2,70.76C60.3,70.72 60.4,70.67 60.51,70.63C60.68,70.56 60.85,70.5 61.02,70.44C61.11,70.41 61.19,70.38 61.28,70.35C61.54,70.26 61.8,70.19 62.06,70.12C89.04,75.97 105.65,84.61 105.65,84.61C106.27,93.13 108.59,99.83 112.4,108.24C112.81,109.14 114.14,108.97 114.3,107.99L116.43,94.84C117.49,88.32 119.63,82.02 122.77,76.21L127.72,67.12Z" style="fill:rgb(98,192,234);fill-rule:nonzero;"/>
    <path d="M59.07,47.73C59.07,47.73 69.61,40.98 85.57,41.3C87.18,41.33 90.12,41.13 90.12,41.8C90.12,41.8 90.54,42.35 85.75,42.43C79.53,42.53 70.32,44.24 63.45,48.32L59.07,47.73Z" style="fill:rgb(225,245,254);fill-rule:nonzero;"/>
    <g>
        <path d="M42.43,48.1C42.43,46.48 41.98,43.02 41.73,39.95C41.68,39.38 41.14,36.55 41.62,36.55C42.09,36.55 43.64,41.85 43.98,44.48C44.19,46.1 44.43,48.6 43.98,50.2C43.91,50.39 43.52,50.43 43.06,50.49C42.21,50.59 42.43,49.54 42.43,48.1ZM46.87,49.45C46.87,47.83 46.42,44.37 46.17,41.3C46.12,40.73 45.58,37.9 46.06,37.9C46.53,37.9 48.08,43.2 48.42,45.83C48.63,47.45 48.87,49.95 48.42,51.55C48.35,51.74 47.96,51.78 47.5,51.84C46.65,51.94 46.87,50.89 46.87,49.45ZM51.48,50.66C51.48,49.04 51.03,45.58 50.78,42.51C50.73,41.94 50.19,39.11 50.67,39.11C51.14,39.11 52.69,44.41 53.03,47.04C53.24,48.66 53.48,51.16 53.03,52.76C52.96,52.95 52.57,52.99 52.11,53.05C51.26,53.15 51.48,52.1 51.48,50.66Z" style="fill:white;fill-rule:nonzero;"/>
    </g>
    <path d="M73.31,26.99C71.63,30.19 71.18,31.29 70.04,33.68C69.34,33.38 68.68,33.13 68.05,32.91C69.23,31.05 72.99,24.76 73.93,24.66C74.28,24.61 73.79,26.16 73.31,26.99Z" style="fill:rgb(30,157,219);fill-rule:nonzero;"/>
    <path d="M78.36,52.83C78.2,52.69 80.02,51.39 81.78,49.85C82.72,49.03 84.17,48.07 85.5,47.44C86.25,47.08 87.51,46.62 87.51,46.62C87.97,47.1 89.92,48.86 90.69,49.74C88.26,49.94 87.07,49.56 84.53,50.6C83.42,51.05 81.48,51.62 80.4,52.14C79.76,52.44 78.59,53.01 78.36,52.83Z" style="fill:rgb(25,124,183);fill-rule:nonzero;"/>
    <path d="M16.9,50.38L21.312,50.344L36.783,49.742L36.783,46.62L20.714,42.925L12.81,46.41C12.91,47.241 15.234,49.648 16.9,50.38Z" style="fill:rgb(244,164,191);"/>
    <path d="M60.88,66.65C60.77,66.63 50.03,64.59 38.96,61.42C20.92,56.25 17.47,51.28 16.9,50.38C18.44,48.76 23.67,48.308 28.74,49.28C30.486,49.616 34.482,48.708 34.426,48.272C33.832,47.475 30.774,48.612 29.138,47.915C19.69,43.892 15.93,45.01 12.81,46.41C11.29,45.12 5.76,39.99 4.11,36.73C4.08,36.64 4.05,36.53 4.01,36.4C3.55,35.02 4.42,34.43 5.27,34.43C7.47,34.44 16.35,38.42 18.81,39.53C22.78,41.33 29.12,43.74 33.43,44.81C38.6,46.09 52.7,47.86 72.9,52.77L73.52,52.96C87.74,57.66 96.64,66.73 99.9,70.47C101.84,72.7 104.83,76.44 107.58,80.22C108.19,81.07 107.26,82.16 106.32,81.7C99.22,78.2 82.77,71.14 60.88,66.65Z" style="fill:white;fill-rule:nonzero;"/>
    <path d="M71.54,34.3C72.43,34.63 75.27,36.07 77.17,37.09C77.57,37.3 79.49,38.3 80.56,38.99C80.38,38.05 80.18,37.26 80.1,36.85C80.03,36.46 77.1,35.3 75.76,35C73.95,34.59 72.26,34.38 71.54,34.3ZM46.57,66.65C50.46,67.45 52.88,68.32 55.78,68.82C57.69,69.15 60.27,69.52 62.07,70.14C60.22,70.53 57.12,72.1 54.96,74.28C53.66,72.4 51.99,70.82 50.71,69.83C50.2,69.44 48.37,68.39 46.57,66.65Z" style="fill:rgb(29,140,200);fill-rule:nonzero;"/>
    <path d="M32.182,40.9C32.058,40.975 31.915,41.014 31.77,41.014C31.48,41.013 31.21,40.86 31.061,40.611C31.028,40.551 30.135,39.127 28.158,39.127C26.148,39.127 25.256,40.597 25.247,40.611C25.1,40.86 24.831,41.014 24.542,41.014C24.093,41.014 23.723,40.644 23.723,40.195C23.723,40.049 23.763,39.905 23.837,39.779C23.891,39.686 25.219,37.489 28.158,37.489C31.094,37.489 32.419,39.686 32.473,39.779C32.699,40.166 32.568,40.671 32.182,40.899L32.182,40.9Z" style="fill:rgb(12,94,159);fill-rule:nonzero;"/>
</svg>

<svg xmlns="http://www.w3.org/2000/svg" width="128" height="128"><path d="M127.72 67.12c.47-.86-.46-1.81-1.34-1.36-7.14 3.64-11.41 5.19-15.75 8.53-.05-.11-8.75-17.03-23.11-27.66 4.62-2.09 9.59-3.36 12.35-3.97a.491.491 0 0 0 .01-.96 63.733 63.733 0 0 0-18.43-1.49l-.89-1.23c-1.15-4.69-2.61-15.45-3-19.6a.458.458 0 0 0-.26-.39.465.465 0 0 0-.23-.06c-.09 0-.17.02-.25.06-5.03 2.87-11.09 12.65-11.37 13.11-.78-.2-1.37-.24-1.37-.24-7.74-1.48-15.13-2.11-21.93-2.1C2.87 29.82 1 32.48.92 32.52c-.26.15-.48.37-.62.65 0 .01-.01.02-.01.02-.04.09-.07.18-.1.28v.02c-.02.1-.03.2-.04.3 0 .18.02.36.08.54 3.52 10.02 13.93 16.15 13.93 16.15.65 4.9 16.81 12.08 29.85 15.48-.04.06-.08.13-.13.21-.02.04-.05.08-.08.13s-.06.11-.09.16c-.02.04-.05.08-.07.12-.04.06-.07.13-.11.19 0 0 0 .01-.01.01-.09.16-.18.33-.27.51-.02.04-.04.09-.07.13-.04.09-.08.17-.13.26l-.06.12c-.09.18-.17.37-.26.57-.02.04-.03.07-.05.11-.05.11-.09.22-.14.33l-.06.15c-.15.37-.3.76-.44 1.18-.02.06-.04.11-.06.17-.04.13-.09.27-.13.4-.02.05-.03.1-.05.15-.08.27-.16.54-.23.82-.01.05-.03.1-.04.16-.04.15-.07.29-.11.44-.02.07-.03.15-.05.22-.11.48-.21.99-.29 1.51-.01.09-.03.18-.04.28l-.06.47-.03.3c-.03.27-.06.55-.08.83l-.03.35c-.01.16-.02.32-.02.47-.01.13-.01.25-.01.38 0 .16-.01.31-.01.47 0 .25 0 .5.01.76.09 3.14.82 6.73 2.7 10.61.14.28.42.46.74.46h.01c.32 0 .61-.19.74-.48 1.09-2.41 3.46-7.15 6.84-11.32.17-.21.35-.42.52-.63l.01-.01c.17-.2.35-.41.53-.61l.03-.03c.17-.2.35-.39.53-.58l.03-.03c.74-.78 1.52-1.53 2.33-2.2.01-.01.02-.02.04-.03.14-.12.28-.23.43-.34.08-.07.17-.13.25-.2.13-.1.25-.19.38-.28.1-.08.21-.15.31-.23l.36-.24c.12-.08.23-.16.35-.23.11-.07.23-.14.35-.21.13-.08.26-.15.38-.22.11-.06.22-.13.34-.19.14-.07.27-.14.41-.21.11-.05.22-.11.33-.16.15-.07.3-.13.45-.2.1-.04.2-.09.31-.13.17-.07.34-.13.51-.19.09-.03.17-.06.26-.09.26-.09.52-.16.78-.23 26.98 5.85 43.59 14.49 43.59 14.49.62 8.52 2.94 15.22 6.75 23.63.41.9 1.74.73 1.9-.25l2.13-13.15c1.06-6.52 3.2-12.82 6.34-18.63z" fill="#016d9e"/><path d="M59.07 47.73s10.54-6.75 26.5-6.43c1.61.03 4.55-.17 4.55.5 0 0 .42.55-4.37.63-6.22.1-15.43 1.81-22.3 5.89z" fill="#fff"/><g fill="#b4e9f3"><path d="M42.43 48.1c0-1.62-.45-5.08-.7-8.15-.05-.57-.59-3.4-.11-3.4.47 0 2.02 5.3 2.36 7.93.21 1.62.45 4.12 0 5.72-.07.19-.46.23-.92.29-.85.1-.63-.95-.63-2.39zM46.87 49.45c0-1.62-.45-5.08-.7-8.15-.05-.57-.59-3.4-.11-3.4.47 0 2.02 5.3 2.36 7.93.21 1.62.45 4.12 0 5.72-.07.19-.46.23-.92.29-.85.1-.63-.95-.63-2.39zM51.48 50.66c0-1.62-.45-5.08-.7-8.15-.05-.57-.59-3.4-.11-3.4.47 0 2.02 5.3 2.36 7.93.21 1.62.45 4.12 0 5.72-.07.19-.46.23-.92.29-.85.1-.63-.95-.63-2.39z"/></g><path d="M73.31 26.99c-1.68 3.2-2.13 4.3-3.27 6.69-.7-.3-1.36-.55-1.99-.77 1.18-1.86 4.94-8.15 5.88-8.25.35-.05-.14 1.5-.62 2.33z" fill="#016d9e"/><path d="M78.36 52.83c-.16-.14 1.66-1.44 3.42-2.98.94-.82 2.39-1.78 3.72-2.41.75-.36 2.01-.82 2.01-.82.46.48 2.41 2.24 3.18 3.12-2.43.2-3.62-.18-6.16.86-1.11.45-3.05 1.02-4.13 1.54-.64.3-1.81.87-2.04.69z" fill="#036"/><path d="M60.88 66.65c-.11-.02-10.85-2.06-21.92-5.23-18.04-5.17-21.49-10.14-22.06-11.04 1.54-1.62 6.77-2.072 11.84-1.1 1.746.336 5.742-.572 5.686-1.008-.594-.797-3.652.34-5.288-.357C19.69 43.892 15.93 45.01 12.81 46.41c-1.52-1.29-7.05-6.42-8.7-9.68-.03-.09-.06-.2-.1-.33-.46-1.38.41-1.97 1.26-1.97 2.2.01 11.08 3.99 13.54 5.1 3.97 1.8 10.31 4.21 14.62 5.28 5.17 1.28 19.27 3.05 39.47 7.96l.62.19c14.22 4.7 23.12 13.77 26.38 17.51 1.94 2.23 4.93 5.97 7.68 9.75.61.85-.32 1.94-1.26 1.48-7.1-3.5-23.55-10.56-45.44-15.05z" fill="#b4e9f3"/><path d="M71.54 34.3c.89.33 3.73 1.77 5.63 2.79.4.21 2.32 1.21 3.39 1.9-.18-.94-.38-1.73-.46-2.14-.07-.39-3-1.55-4.34-1.85-1.81-.41-3.5-.62-4.22-.7zM46.57 66.65c3.89.8 6.31 1.67 9.21 2.17 1.91.33 4.49.7 6.29 1.32-1.85.39-4.95 1.96-7.11 4.14-1.3-1.88-2.97-3.46-4.25-4.45-.51-.39-2.34-1.44-4.14-3.18z" fill="#036"/><path d="M32.182 40.9a.797.797 0 0 1-.412.114.829.829 0 0 1-.709-.403c-.033-.06-.926-1.484-2.903-1.484-2.01 0-2.902 1.47-2.911 1.484a.818.818 0 0 1-1.41-.832c.054-.093 1.382-2.29 4.321-2.29 2.936 0 4.261 2.197 4.315 2.29a.821.821 0 0 1-.291 1.12z" fill="#2f2f2f"/></svg>
